public/medicines.svg

<svg xmlns="http://www.w3.org/2000/svg" viewBox="0 0 512 512" style="height: 512px; width: 512px;"><path d="M0 0h512v512H0z" fill="#000" fill-opacity="1"></path><g class="" transform="translate(0,0)" style=""><path d="M217.4 27.43c-27.9.47-53.1 17.11-64.5 42.84l136.5 41.23c6-35.79-15.5-70.49-50.1-81.02-6.2-1.88-12.7-2.91-19.2-3.05h-2.7zm-69.7 60.08c-6.1 35.89 15.4 70.69 50.1 81.19 34.8 10.5 71.9-6.7 86.5-40zm265.5 44.29c-25.3.1-52.2 12.3-72.5 41L215.9 349.7c-33.5 47.4-18.9 97 14.1 120.4 33.1 23.5 84.6 20.8 118.1-26.6l124.7-176.8c33.5-47.5 18.9-97-14.1-120.5-12.4-8.8-27.3-13.9-43-14.4zm-1.8 17.3c1.3 0 2.6 0 3.8.1 12.1.5 23.5 4.8 33.1 11.7 25.7 18.2 38.6 54.5 9.7 95.4l-64.5 91.5c-35.8-9.6-81.8-42.3-102.7-73l64.7-91.6c16.9-23.9 37-33.7 55.9-34.1zM91.25 225.3c-9.62.1-19.11 2.1-27.93 6-33.11 14.5-50.34 51.5-40.24 86.3l130.72-57.1c-13.1-22.1-36.9-35.5-62.55-35.2zm69.65 51.6L30.2 334.1c18.45 31.4 57.3 44 90.6 29.5 33.2-14.6 50.4-51.8 40.1-86.7z" fill="#fff" fill-opacity="1"></path></g></svg>

<?xml version="1.0" encoding="UTF-8" standalone="no"?>
<!DOCTYPE svg PUBLIC "-//W3C//DTD SVG 1.1//EN" "http://www.w3.org/Graphics/SVG/1.1/DTD/svg11.dtd">
<svg width="100%" height="100%" viewBox="0 0 512 512" version="1.1" xmlns="http://www.w3.org/2000/svg" xmlns:xlink="http://www.w3.org/1999/xlink" xml:space="preserve" xmlns:serif="http://www.serif.com/" style="fill-rule:evenodd;clip-rule:evenodd;stroke-linejoin:round;stroke-miterlimit:2;">
    <g>
        <path d="M217.4,27.43C189.5,27.9 164.3,44.54 152.9,70.27L289.4,111.5C295.4,75.71 273.9,41.01 239.3,30.48C233.1,28.6 226.6,27.57 220.1,27.43L217.4,27.43ZM147.7,87.51C141.6,123.4 163.1,158.2 197.8,168.7C232.6,179.2 269.7,162 284.3,128.7L147.7,87.51ZM413.2,131.8C387.9,131.9 361,144.1 340.7,172.8L215.9,349.7C182.4,397.1 197,446.7 230,470.1C263.1,493.6 314.6,490.9 348.1,443.5L472.8,266.7C506.3,219.2 491.7,169.7 458.7,146.2C446.3,137.4 431.4,132.3 415.7,131.8L413.2,131.8ZM411.4,149.1C412.7,149.1 414,149.1 415.2,149.2C427.3,149.7 438.7,154 448.3,160.9C474,179.1 486.9,215.4 458,256.3L393.5,347.8C357.7,338.2 311.7,305.5 290.8,274.8L355.5,183.2C372.4,159.3 392.5,149.5 411.4,149.1ZM91.25,225.3C81.63,225.4 72.14,227.4 63.32,231.3C30.21,245.8 12.98,282.8 23.08,317.6L153.8,260.5C140.7,238.4 116.9,225 91.25,225.3ZM160.9,276.9L30.2,334.1C48.65,365.5 87.5,378.1 120.8,363.6C154,349 171.2,311.8 160.9,276.9Z" style="fill:white;fill-rule:nonzero;"/>
    </g>
</svg>
